resources/svg/restaurant-2-line.svg

<svg fill="currentColor" viewBox="0 0 24 24" xmlns="http://www.w3.org/2000/svg"><path d="M14.2683 12.1466L13.4147 13.0002L20.4858 20.0712L19.0716 21.4854L12.0005 14.4144L4.92946 21.4854L3.51525 20.0712L12.854 10.7324C12.2664 9.27549 12.8738 7.17715 14.4754 5.57554C16.428 3.62292 19.119 3.14805 20.4858 4.51488C21.8526 5.88172 21.3778 8.57267 19.4251 10.5253C17.8235 12.1269 15.7252 12.7343 14.2683 12.1466ZM4.22235 3.80777L10.9399 10.5253L8.11144 13.3537L4.22235 9.46463C2.66026 7.90253 2.66026 5.36987 4.22235 3.80777ZM18.0109 9.11107C19.2682 7.85386 19.5274 6.38488 19.0716 5.92909C18.6158 5.47331 17.1468 5.73254 15.8896 6.98975C14.6324 8.24697 14.3732 9.71595 14.829 10.1717C15.2847 10.6275 16.7537 10.3683 18.0109 9.11107Z"/></svg>

<svg xmlns="http://www.w3.org/2000/svg" viewBox="0 0 24 24" fill="currentColor">
    <g>
        <path fill="none" d="M0 0h24v24H0z"/>
        <path d="M14.268 12.146l-.854.854 7.071 7.071-1.414 1.414L12 14.415l-7.071 7.07-1.414-1.414 9.339-9.339c-.588-1.457.02-3.555 1.62-5.157 1.953-1.952 4.644-2.427 6.011-1.06s.892 4.058-1.06 6.01c-1.602 1.602-3.7 2.21-5.157 1.621zM4.222 3.808l6.717 6.717-2.828 2.829-3.89-3.89a4 4 0 0 1 0-5.656zM18.01 9.11c1.258-1.257 1.517-2.726 1.061-3.182-.456-.456-1.925-.197-3.182 1.06-1.257 1.258-1.516 2.727-1.06 3.183.455.455 1.924.196 3.181-1.061z"/>
    </g>
</svg>
